X:116
T:A Handful of Henna (The Humours of Mehndi) 
R:reel
C: 2004, 2010 L.E. McCullough 
M:4/4
L:1/8
K:Dmix
FG || ~A3B ~A2FG | A~D3 ~c3A | ~B3d B~G3 | B~G3 A2FG |
~A3B AGFD | ADBD ~c3A | ~B2dB ~B2GA | B~G3 A2dB |]
~c3A ~B3A | (3Bcd BG A~D3 | c~A3 ~B2AG | Add^c d2AB |
~c3A ~B3A | (3Bcd BG A~D3 | ~c3A B3A | (3BAG (3Bcd g2FG |]
<end>
<start>
